icons/hand-heart-line.svg

<svg xmlns="http://www.w3.org/2000/svg" width="24" height="24" fill="none"><g clip-path="url(#a)"><g><path fill="#121212" d="M5 9C5.26522 9 5.51957 9.10536 5.70711 9.29289C5.89464 9.48043 6 9.73479 6 10C7.57114 9.99769 9.09698 10.5263 10.33 11.5H12.5C13.832 11.5 15.03 12.079 15.853 12.999L19 13C19.9453 12.9997 20.8712 13.2674 21.6705 13.772C22.4698 14.2767 23.1097 14.9975 23.516 15.851C21.151 18.972 17.322 21 13 21C10.21 21 7.85 20.397 5.94 19.342C5.87004 19.5351 5.74224 19.7018 5.57402 19.8196C5.40579 19.9374 5.20534 20.0004 5 20H2C1.73478 20 1.48043 19.8946 1.29289 19.7071C1.10536 19.5196 1 19.2652 1 19V10C1 9.73479 1.10536 9.48043 1.29289 9.29289C1.48043 9.10536 1.73478 9 2 9H5ZM6.001 12L6 17.021L6.045 17.054C7.84 18.314 10.178 19 13 19C16.004 19 18.799 17.844 20.835 15.87L20.968 15.737L20.848 15.637C20.3758 15.2672 19.8034 15.0477 19.205 15.007L19 15L16.888 14.999C16.961 15.321 17 15.656 17 16V17H8V15L14.79 14.999L14.756 14.921C14.5644 14.5205 14.2696 14.1783 13.9019 13.9295C13.5343 13.6806 13.107 13.5341 12.664 13.505L12.5 13.5H9.57C9.10531 13.0247 8.55027 12.6472 7.93752 12.3896C7.32477 12.132 6.66669 11.9995 6.002 12H6.001ZM4 11H3V18H4V11ZM13.646 3.575L14 3.93L14.354 3.576C14.5858 3.34222 14.8615 3.15653 15.1653 3.02958C15.469 2.90264 15.7949 2.83694 16.1241 2.83627C16.4533 2.8356 16.7795 2.89996 17.0837 3.02566C17.388 3.15135 17.6645 3.33592 17.8973 3.56875C18.13 3.80158 18.3145 4.07809 18.4401 4.38241C18.5657 4.68673 18.63 5.01287 18.6292 5.34209C18.6285 5.67131 18.5627 5.99715 18.4356 6.30088C18.3086 6.60461 18.1228 6.88026 17.889 7.112L14 11L10.11 7.11C9.87622 6.87819 9.69053 6.60249 9.56358 6.29872C9.43664 5.99495 9.37094 5.66911 9.37027 5.33988C9.36959 5.01066 9.43396 4.68454 9.55965 4.38026C9.68535 4.07597 9.86992 3.79951 10.1027 3.56675C10.3356 3.33398 10.6121 3.1495 10.9164 3.02388C11.2207 2.89827 11.5469 2.834 11.8761 2.83477C12.2053 2.83554 12.5311 2.90132 12.8349 3.02835C13.1386 3.15538 13.4143 3.34115 13.646 3.575ZM11.526 4.99C11.4431 5.07242 11.3917 5.18128 11.3808 5.29765C11.3698 5.41402 11.4 5.53055 11.466 5.627L11.524 5.696L14 8.17L16.476 5.696C16.5588 5.61327 16.61 5.5041 16.6206 5.38751C16.6312 5.27092 16.6006 5.15431 16.534 5.058L16.476 4.988C16.3931 4.90533 16.2839 4.85434 16.1673 4.84392C16.0507 4.83351 15.9342 4.86432 15.838 4.931L15.768 4.989L13.999 6.757L12.232 4.987L12.164 4.931C12.0677 4.86445 11.9511 4.8338 11.8345 4.8444C11.7179 4.855 11.6087 4.90617 11.526 4.989V4.99Z"/></g></g><defs><clipPath id="a"><rect width="24" height="24" fill="white"/></clipPath></defs></svg>

<svg width="24" height="24" fill="none" xmlns="http://www.w3.org/2000/svg"><g clip-path="url(#a)"><path d="M5 9a1 1 0 0 1 1 1 6.97 6.97 0 0 1 4.33 1.5h2.17c1.332 0 2.53.579 3.353 1.499L19 13a5 5 0 0 1 4.516 2.851C21.151 18.972 17.322 21 13 21c-2.79 0-5.15-.603-7.06-1.658A.998.998 0 0 1 5 20H2a1 1 0 0 1-1-1v-9a1 1 0 0 1 1-1h3Zm1.001 3L6 17.021l.045.033C7.84 18.314 10.178 19 13 19c3.004 0 5.799-1.156 7.835-3.13l.133-.133-.12-.1a2.994 2.994 0 0 0-1.643-.63L19 15l-2.112-.001c.073.322.112.657.112 1.001v1H8v-2l6.79-.001-.034-.078a2.5 2.5 0 0 0-2.092-1.416L12.5 13.5H9.57A4.985 4.985 0 0 0 6.002 12h-.001ZM4 11H3v7h1v-7Zm9.646-7.425L14 3.93l.354-.354a2.5 2.5 0 1 1 3.535 3.536L14 11l-3.89-3.89a2.5 2.5 0 1 1 3.536-3.535Zm-2.12 1.415a.5.5 0 0 0-.06.637l.058.069L14 8.17l2.476-2.474a.5.5 0 0 0 .058-.638l-.058-.07a.5.5 0 0 0-.638-.057l-.07.058-1.769 1.768-1.767-1.77-.068-.056a.5.5 0 0 0-.638.058v.001Z" /></g><defs><clipPath id="a"><path fill="#fff" d="M0 0h24v24H0z"/></clipPath></defs></svg>
